**kern	**silbe	**kern	**silbe
*ICvox	*	*ICvox	*
=1	=1	=1	=1
*F:	*	*F:	*
*M4/4	*	*M4/4	*
*clefC3	*	*clefG2	*
1r	.	1r	.
=2	=2	=2	=2
1r	.	1r	.
=3	=3	=3	=3
2r	.	1r	.
4r	.	.	.
8.r	.	.	.
16F	I	.	.
=4	=4	=4	=4
8c	call	1r	.
8c	you,	.	.
8r	_	.	.
16c	when	.	.
16c	I	.	.
8d	need	.	.
8d	you,	.	.
8r	_	.	.
8d	my	.	.
=5	=5	=5	=5
8dq	_	.	.
4e	heart's	1r	.
8f	on	.	.
[8f	fi	.	.
8f]	_	.	.
16d	_	.	.
16c	_	.	.
4c	re.	.	.
=6	=6	=6	=6
1r	.	1r	.
=7	=7	=7	=7
2r	.	1r	.
4.r	.	.	.
8F	You	.	.
=8	=8	=8	=8
4c	come	1r	.
8c	to	.	.
8c	me,	.	.
4d	come	.	.
8d	to	.	.
8d	me,	.	.
=9	=9	=9	=9
8e	wi-	1r	.
8e	-ld	.	.
8f	and	.	.
[8f	wi	.	.
8f]	_	.	.
16d	_	.	.
16c	_	.	.
4c	ld.	.	.
=10	=10	=10	=10
1r	.	1r	.
=11	=11	=11	=11
2r	.	1r	.
8f	Oh,	.	.
8f	you	.	.
8f	come	.	.
8f	to	.	.
=12	=12	=12	=12
4f	me!	1r	.
4r	_	.	.
2r	.	.	.
=13	=13	=13	=13
8r	.	1r	.
8a	Give	.	.
8g	me	.	.
8g	ev-	.	.
8f	-'ry-	.	.
8f	-thing	.	.
8A	_	.	.
[8B-	I	.	.
=14	=14	=14	=14
8B-]	_	1r	.
[4.B-	need	.	.
8B-]	_	.	.
8r	.	.	.
4r	.	.	.
=15	=15	=15	=15
2r	.	1r	.
4r	.	.	.
16c	Give	.	.
16c	me	.	.
16c	a	.	.
[16c	life	.	.
=16	=16	=16	=16
8c]	_	1r	.
4c	time	.	.
16c	of	.	.
[16d	pro	.	.
16d]	_	.	.
16d	mi-	.	.
8d	-ses,	.	.
8r	_	.	.
16d	and	.	.
16d	a	.	.
=17	=17	=17	=17
8dq	_	.	.
4e	world	1r	.
8f	of	.	.
[8f	dreams	.	.
8f]	_	.	.
16d	_	.	.
[16c	_	.	.
8c]	_	.	.
8r	.	.	.
=18	=18	=18	=18
1r	.	1r	.
=19	=19	=19	=19
2r	.	1r	.
4r	.	.	.
16c	Speak	.	.
16c	the	.	.
[8c	lan	.	.
=20	=20	=20	=20
8c]	_	1r	.
8c	guage	.	.
8c	of	.	.
8cq	_	.	.
[8d	love	.	.
6d]	_	.	.
6d	like	.	.
6d	you	.	.
=21	=21	=21	=21
6e	know	1r	.
6e	what	.	.
8eq	_	.	.
8g	it	.	.
[24f	means	.	.
8.f]	_	.	.
16d	_	.	.
4c	_	.	.
=22	=22	=22	=22
1r	.	1r	.
=23	=23	=23	=23
4r	.	1r	.
8r	.	.	.
[8f	Mm,	.	.
8f]	_	.	.
16f	and	.	.
16f	it	.	.
8f	can't	.	.
8f	be	.	.
=24	=24	=24	=24
16f	wrong!	1r	.
16d	_	.	.
8r	.	.	.
4r	_	.	.
2r	.	.	.
=25	=25	=25	=25
8r	.	1r	.
8a	Take	.	.
8g	my	.	.
8g	heart	.	.
8f	_	.	.
8f	and	.	.
8f	make	.	.
8f	it	.	.
=26	=26	=26	=26
8f	strong,	1r	.
4B-	_	.	.
8B-	babe	.	.
2r	...	.	.
=27	=27	=27	=27
4r	.	1r	.
8r	.	.	.
8c	you're	.	.
8b-	sim-	.	.
8b-	-ply	.	.
8b-	the	.	.
8gq	_	.	.
8a	best!	.	.
=28	=28	=28	=28
1r	.	1r	.
=29	=29	=29	=29
2r	.	1r	.
8a	Bet-	.	.
8a	-ter	.	.
4a	than	.	.
=30	=30	=30	=30
4a	all	1r	.
8f	the	.	.
8f	rest!	.	.
2r	_	.	.
=31	=31	=31	=31
2r	.	1r	.
8a	Bet-	.	.
8a	-ter	.	.
4a	than	.	.
=32	=32	=32	=32
8a	a-	1r	.
4f	-ny-	.	.
8f	-one,	.	.
2r	_	.	.
=33	=33	=33	=33
2r	.	1r	.
16r	.	.	.
16f	a-	.	.
8f	-ny-	.	.
8f	-one	.	.
8f	I've	.	.
=34	=34	=34	=34
8f	e	1r	.
8c	_	.	.
8c	ver	.	.
8c	met!	.	.
2r	_	.	.
=35	=35	=35	=35
4r	.	1r	.
8r	.	.	.
8g	I'm	.	.
8b-	stuck	.	.
[8b-	on	.	.
16b-]	_	.	.
8.b-	your	.	.
=36	=36	=36	=36
8a	heart!	1r	.
4f	_	.	.
8r	_	.	.
2r	.	.	.
=37	=37	=37	=37
4r	.	2r	.
8r	.	.	.
8f	I	.	.
8a	hang	8f	_
8a	on	8f	_
8a	ev-	8f	_
8a	-'ry	8f	_
=38	=38	=38	=38
8gq	_	8dq	_
8a-	word	8f	_
8g	_	8d	_
8f	you	8c	_
8f	say!	8c	_
2r	_	2r	.
=39	=39	=39	=39
2r	.	1r	.
8f	Tear	.	.
8f	us	.	.
16f	a-	.	.
16fq	_	.	.
[8.d	-part	.	.
=40	=40	=40	=40
8d]	_	1r	.
16c	_	.	.
16A	_	.	.
16A	_	.	.
16G	_	.	.
8F	_	.	.
2r	.	.	.
=41	=41	=41	=41
2r	.	1r	.
8f	Ba-	.	.
8f	-by,	.	.
8f	I	.	.
8f	would	.	.
=42	=42	=42	=42
6d	ra-	1r	.
6c	-ther	.	.
8cq	_	.	.
6d	be	.	.
8c	_	.	.
4.c	dead!	.	.
=43	=43	=43	=43
2r	_	1r	.
4r	.	.	.
16A	In	.	.
16B-	your	.	.
[8c	heart	.	.
=44	=44	=44	=44
8.c]	_	1r	.
16c	I	.	.
16c	see	.	.
16c	the	.	.
[8d	start	.	.
8.d]	_	.	.
16d	of	.	.
16d	ev-	.	.
16d	-'ry	.	.
16dq	_	.	.
[8e	night	.	.
=45	=45	=45	=45
8.e]	_	1r	.
16e	and	.	.
16e	ev-	.	.
16f	-'ry	.	.
[8f	day	.	.
8f]	_	.	.
16d	_	.	.
16c	_	.	.
4c	_	.	.
=46	=46	=46	=46
1r	.	1r	.
=47	=47	=47	=47
2r	.	1r	.
4r	.	.	.
16c	In	.	.
16c	your	.	.
8c	eyes,	.	.
=48	=48	=48	=48
4A	_	1r	.
16r	_	.	.
16A	I	.	.
8c	get	.	.
4e	lost,	.	.
16r	_	.	.
16A	I	.	.
8d	get	.	.
=49	=49	=49	=49
4e	washed	1r	.
8f	a-	.	.
[8f	-way	.	.
8f]	_	.	.
16d	_	.	.
16c	_	.	.
4c	_	.	.
=50	=50	=50	=50
1r	.	1r	.
=51	=51	=51	=51
2r	.	1r	.
6r	.	.	.
6a	Just	.	.
8gq	_	.	.
6a	as	.	.
=52	=52	=52	=52
12a	long	1r	.
12g	_	.	.
6g	as	.	.
6g	I'm	.	.
12g	here	.	.
12f	_	.	.
6f	in	.	.
6f	your	.	.
=53	=53	=53	=53
6f	arms	1r	.
6f	I	.	.
6f	could	.	.
6f	be	.	.
6f	in	.	.
[6f	no	.	.
=54	=54	=54	=54
8f]	_	1r	.
8e-	bet-	.	.
8d	-ter	.	.
[8d	place!	.	.
8d]	_	.	.
8r	_	.	.
4r	.	.	.
=55	=55	=55	=55
4r	.	2r	.
8r	.	.	.
8c	you're	.	.
8b-	sim-	8dd	sim-
8b-	-ply	8dd	-ply
8b-	the	8dd	the
8gq	_	.	.
8a	best!	8cc	best!
=56	=56	=56	=56
1r	.	1r	.
=57	=57	=57	=57
2r	.	2r	.
8a	Bet-	8cc	Bet-
8a	-ter	8cc	-ter
4a	than	4cc	than
=58	=58	=58	=58
4a	all	4cc	all
8f	the	8a	the
8f	rest!	8a	rest!
2r	_	2r	_
=59	=59	=59	=59
2r	.	2r	.
8a	Bet-	8cc	Bet-
8a	-ter	8cc	-ter
4a	than	4cc	than
=60	=60	=60	=60
8a	a-	4cc	a-
8f	-ny-	.	.
8f	_	8a	_
8f	-one,	8a	-one,
2r	_	2r	_
=61	=61	=61	=61
2r	.	2r	.
8f	a-	8a	a-
8f	-ny-	8a	-ny-
8f	-one	8a	-one
8f	I've	8a	I've
=62	=62	=62	=62
8f	e	8a	e
8c	_	8g	_
8c	ver	8g	ver
8c	met!	8g	met!
2r	_	2r	_
=63	=63	=63	=63
4r	.	2r	.
16r	.	.	.
16.cc	_	.	.
16.b-	_	.	.
8b-	stuck	8dd	stuck
[8b-	on	[8dd	on
16b-]	_	16dd]	_
8.b-	your	8.dd	your
=64	=64	=64	=64
8a	heart!	8cc	heart!
4f	_	4a	_
8r	_	8r	_
2r	.	2r	.
=65	=65	=65	=65
4r	.	2r	.
8r	.	.	.
8f	I	.	.
8a	hang	8cc	hang
8a	on	8cc	on
8a	ev-	8cc	ev-
8a	-'ry	8cc	-'ry
=66	=66	=66	=66
8gq	_	8b-q	_
8a-	word	8cc	word
8g	_	8b-	_
8f	you	8a	you
8f	say!	8a	say!
2r	_	2r	_
=67	=67	=67	=67
4r	.	1r	.
8gq	_	.	.
4a	Oh,	.	.
8a	tear	.	.
8g	us	.	.
8f	a-	.	.
[8f	-part,	.	.
=68	=68	=68	=68
8f]	_	1r	.
[8d	no,	.	.
16d]	_	.	.
8.A	no,	.	.
4G	no!	.	.
4r	_	.	.
=69	=69	=69	=69
2r	.	1r	.
16cQ	_	.	.
16dQ	_	.	.
8e	Ba-	.	.
8f	-by,	.	.
8f	I	.	.
8f	would	.	.
=70	=70	=70	=70
6d	ra-	1r	.
6c	-ther	.	.
8cq	_	.	.
6d	be	.	.
8c	_	.	.
4.c	dead	.	.
=71	=71	=71	=71
1r	.	1r	.
=72	=72	=72	=72
8r	.	1r	.
8b-	Each	.	.
8b-	time	.	.
8b-	you	.	.
8b-	leave	.	.
8b-	me	.	.
8b-	I	.	.
8b-	start	.	.
=73	=73	=73	=73
8b-	lo-	1r	.
8a	-sing	.	.
8g	con-	.	.
8b-	-trol,	.	.
16a	_	.	.
8.g	_	.	.
8r	_	.	.
8B-	you're	.	.
=74	=74	=74	=74
8a	wal-	1r	.
8a	-king	.	.
8a	a-	.	.
8g#q	_	.	.
[8a	-way	.	.
8a]	_	.	.
8g	with	.	.
8f	my	.	.
8g#q	_	.	.
[8a	heart	.	.
=75	=75	=75	=75
8a]	_	1r	.
8g	and	.	.
8f	my	.	.
8g#q	_	.	.
[8a	soul!	.	.
4a]	_	.	.
4r	_	.	.
=76	=76	=76	=76
4r	.	1r	.
8b-	I	.	.
8b-	can	.	.
8b-	feel	.	.
8b-	you	.	.
8b-	e-	.	.
8b-	-ven	.	.
=77	=77	=77	=77
8b-	when	1r	.
8a	I'm	.	.
8g	a-	.	.
8b-	-lone!	.	.
16a	_	.	.
8.g	_	.	.
4r	_	.	.
=78	=78	=78	=78
8r	.	1r	.
[8cc	Oh,	.	.
16cc]	_	.	.
[8.cc	ba	.	.
8cc]	_	.	.
8a	_	.	.
8a	by!	.	.
8r	_	.	.
=79	=79	=79	=79
*G:	*	*G:	*
8r	.	1r	.
16dd	Don't	.	.
16cc	_	.	.
8dd	let	.	.
[8dd	go!	.	.
8dd]	_	.	.
16cc	_	.	.
16a	_	.	.
4r	_	.	.
=80	=80	=80	=80
1r	.	1r	.
=81	=81	=81	=81
1r	.	1r	.
=82	=82	=82	=82
1r	.	1r	.
=83	=83	=83	=83
1r	.	1r	.
=84	=84	=84	=84
1r	.	1r	.
=85	=85	=85	=85
1r	.	1r	.
=86	=86	=86	=86
1r	.	1r	.
=87	=87	=87	=87
*clefG2	*	*	*
8r	.	1r	.
4.dd	_	.	.
8cc	sim-	.	.
8cc	-ply	.	.
8cc	the	.	.
8b	best!	.	.
=88	=88	=88	=88
8r	.	1r	.
8bb-	_	.	.
4r	.	.	.
2r	.	.	.
=89	=89	=89	=89
2r	.	2r	.
8b	Bet-	8dd	Bet-
8b	-ter	8dd	-ter
4b	than	4dd	than
=90	=90	=90	=90
8b	all	8dd	all
8g	_	8b	_
8g	the	8b	the
8g	rest!	8b	rest!
2r	_	2r	_
=91	=91	=91	=91
2r	.	2r	.
8b	Bet-	8dd	Bet-
8b	-ter	8dd	-ter
4b	than	4dd	than
=92	=92	=92	=92
8b	a-	4dd	a-
8g	-ny-	.	.
8g	_	8b	_
8g	-one,	8b	-one,
2r	_	2r	_
=93	=93	=93	=93
2r	.	2r	.
8g	_	8b	_
8g	ny-	8b	ny-
8g	-one	8b	-one
8g	I've	8b	I've
=94	=94	=94	=94
8g	e	8b	e
8d	_	8a	_
8d	ver	8a	ver
8d	met!	8a	met!
2r	_	2r	_
=95	=95	=95	=95
4r	.	2r	.
16r	.	.	.
16.dd	Ooh,	.	.
16.cc	I'm	.	.
8cc	stuck	8ee	stuck
[8cc	on	[8ee	on
16cc]	_	16ee]	_
8.cc	your	8.ee	your
=96	=96	=96	=96
8b	heart!	8dd	heart!
4g	_	4b	_
8r	_	8r	_
2r	.	2r	.
=97	=97	=97	=97
4r	.	2r	.
8r	.	.	.
8g	I	.	.
8b	hang	8dd	hang
8b	on	8dd	on
8b	ev-	8dd	ev-
8b	-'ry	8dd	-'ry
=98	=98	=98	=98
8aq	_	8ccq	_
8b-	word	8dd	word
8a	_	8cc	_
8g	you	8b	you
8g	say!	8b	say!
2r	_	2r	_
=99	=99	=99	=99
4r	.	1r	.
8aq	_	.	.
4b	Oh,	.	.
8b	tear	.	.
8a	us	.	.
8g	a-	.	.
8g	-part!	.	.
=100	=100	=100	=100
8e	_	1r	.
8r	_	.	.
16r	.	.	.
16e	No,	.	.
[8B	_	.	.
16B]	_	.	.
8.A	no!	.	.
4r	_	.	.
=101	=101	=101	=101
*clefC3	*	*	*
2r	.	1r	.
8g	Ba-	.	.
8g	-by,	.	.
8g	I	.	.
8g	would	.	.
=102	=102	=102	=102
6e	ra-	1r	.
6d	-ther	.	.
8dq	_	.	.
6e	be	.	.
8d	_	.	.
4.d	dead	.	.
=103	=103	=103	=103
8r	.	1r	.
4.dd	Oh,	.	.
8cc	_	.	.
8cc	you're	.	.
8cc	the	.	.
8b	best!	.	.
=104	=104	=104	=104
1r	.	1r	.
*-	*-	*-	*-
!!!ENC: Nathaniel Condit-Schultz